X:82
T:Orphan, The
R:jig
D:Kevin Burke: Up Close
Z:id:hn-jig-121
M:6/8
L:1/8
Q:3/8=115
K:Amin
"Am"E-E>A "Am"AGE | "C"cBc "G"dcd |"Am"e>ge "Am"dcd|"Em"ecA "Em"GED|
"Am"E-E>A "Am"AGE | "C"cBc "G"dcd |"Am"e>ge "G"dcB|"Em"cec "Em"A2G:|
"F"a>ba "C"ged | "Am"cde "G"~g3 |"Am"a>ge "G"ged|"Am"ecA "Em"GED|
"Am"E-E>A "Am"AGE | "C"cBc "G"dcd |"C"e>ge "G"dcB|"Am"cec "Am"A2G:|
